svgs/sharp-solid/hospital-user.svg

<svg xmlns="http://www.w3.org/2000/svg" viewBox="0 0 576 512"><!--! Font Awesome Pro 6.6.0 by @fontawesome - https://fontawesome.com License - https://fontawesome.com/license (Commercial License) Copyright 2024 Fonticons, Inc. --><path d="M320 0L0 0 0 256l144 0 16 0 0 32-16 0L0 288l0 64 144 0 16 0 0 32-16 0L0 384 0 512l253.1 0L320 359 320 0zM184 64l0 40 40 0 0 48-40 0 0 40-48 0 0-40-40 0 0-48 40 0 0-40 48 0zM512 272a80 80 0 1 0 -160 0 80 80 0 1 0 160 0zm8 112l-176 0L288 512l288 0L520 384z"/></svg>

<svg xmlns="http://www.w3.org/2000/svg" viewBox="0 0 576 512"><!--! Font Awesome Pro 6.5.2 by @fontawesome - https://fontawesome.com License - https://fontawesome.com/license (Commercial License) Copyright 2024 Fonticons, Inc. --><path d="M320 0H0V256H144h16v32H144 0v64H144h16v32H144 0V512H253.1L320 359V0zM184 64v40h40v48H184v40H136V152H96V104h40V64h48zM512 272a80 80 0 1 0 -160 0 80 80 0 1 0 160 0zm8 112H344L288 512H576L520 384z"/></svg>
